picto/cctv-framed.svg

<svg class="color-immutable" width="30" height="30" viewBox="0 0 30 30" fill="none" xmlns="http://www.w3.org/2000/svg"><path d="M30 0H0V30H30V0Z" fill="#2D327D"/><path d="M25.5 3C26.325 3 27 3.675 27 4.5V25.5C27 26.325 26.325 27 25.5 27H4.5C3.675 27 3 26.325 3 25.5V4.5C3 3.675 3.675 3 4.5 3H25.5ZM25.5 2.625H4.5C3.46613 2.625 2.625 3.46613 2.625 4.5V25.5C2.625 26.5339 3.46613 27.375 4.5 27.375H25.5C26.5339 27.375 27.375 26.5339 27.375 25.5V4.5C27.375 3.46613 26.5339 2.625 25.5 2.625Z" fill="white"/><path d="M23.5614 13.0894L10.4039 17.8789C10.1586 17.968 9.89344 17.9563 9.65787 17.8459C9.65787 17.8459 9.02172 17.5495 8.30127 17.2138L8.94042 18.9699C9.05314 19.2797 9.39919 19.441 9.70932 19.3282L23.3823 14.3512C23.6924 14.2384 23.8538 13.8924 23.7409 13.5825L23.5614 13.0894Z" fill="white"/><path d="M5.94873 15.1123L6.12258 15.5902C6.17501 15.7346 6.28256 15.8593 6.43301 15.9293L9.81633 17.5061C9.95553 17.5714 10.1198 17.5831 10.2758 17.5265L23.5743 12.6858C23.8844 12.5729 24.0458 12.2271 23.9331 11.9171L22.8561 8.95837L5.94873 15.1123Z" fill="white"/><path d="M17.9278 19.125H18.5835L17.7306 16.782L15.6157 17.5513L16.534 20.0739C16.7542 19.519 17.2953 19.125 17.9278 19.125Z" fill="white"/><path d="M17.9279 19.5C17.3065 19.5 16.8027 20.0036 16.8027 20.625C16.8025 21.2463 17.3065 21.75 17.9279 21.75H24V19.5H17.9279ZM17.9279 21.3717C17.5137 21.3717 17.1778 21.0359 17.1778 20.6218C17.1778 20.2076 17.5136 19.8718 17.9279 19.8718C18.342 19.8718 18.6777 20.2076 18.6777 20.6218C18.6777 21.0359 18.342 21.3717 17.9279 21.3717Z" fill="white"/><path d="M8.0882 6L7.34068 8.24865H6.78238L6.04565 6H6.5594L7.06543 7.6842L7.5791 6H8.0882Z" fill="white"/><path d="M8.72337 6V6.40147H8.27734V6H8.72337ZM8.72337 6.57217V8.24873H8.27734V6.57217H8.72337Z" fill="white"/><path d="M10.6646 6V8.24865H10.2385V8.02868C10.1401 8.20605 9.97653 8.29478 9.74786 8.29478C9.52023 8.29478 9.33926 8.21123 9.20493 8.04405C9.07368 7.881 9.00806 7.6662 9.00806 7.39958C9.00806 7.14833 9.06596 6.94485 9.18183 6.78892C9.31511 6.60847 9.49563 6.51825 9.72326 6.51825C9.94578 6.51825 10.1114 6.6039 10.2201 6.77512V6H10.6646ZM9.83861 6.8844C9.72378 6.8844 9.63198 6.92745 9.56328 7.01363C9.49256 7.10385 9.45716 7.23097 9.45716 7.39507C9.45716 7.55505 9.49203 7.68217 9.56178 7.77652C9.62846 7.86675 9.72326 7.9119 9.84633 7.9119C9.96941 7.9119 10.0647 7.86728 10.1324 7.7781C10.2 7.68893 10.2339 7.5633 10.2339 7.4013C10.2339 7.2321 10.198 7.10287 10.1262 7.0137C10.0555 6.92745 9.95966 6.8844 9.83861 6.8844Z" fill="white"/><path d="M12.5195 7.72575C12.4959 7.8201 12.4533 7.90875 12.3918 7.99185C12.2442 8.19383 12.0319 8.29485 11.7551 8.29485C11.5049 8.29485 11.3044 8.21588 11.1537 8.058C11.0799 7.98113 11.0235 7.88828 10.9845 7.7796C10.9424 7.66373 10.9214 7.54275 10.9214 7.4166C10.9214 7.17255 10.9917 6.9675 11.1321 6.80138C11.289 6.61575 11.4921 6.52298 11.7412 6.52298C11.9422 6.52298 12.1134 6.585 12.255 6.70905C12.3565 6.79823 12.4303 6.90825 12.4764 7.03898C12.5226 7.1697 12.5457 7.33403 12.5457 7.53196H11.3752C11.3793 7.614 11.3922 7.68218 11.4137 7.73655C11.4742 7.88318 11.589 7.95653 11.7582 7.95653C11.8413 7.95653 11.909 7.9383 11.9613 7.90193C12.0135 7.86555 12.0566 7.80683 12.0905 7.72583H12.5195V7.72575ZM12.0904 7.23203C12.0822 7.15103 12.0638 7.08383 12.0351 7.0305C12.0063 6.97823 11.9656 6.93668 11.9128 6.90593C11.86 6.87518 11.8023 6.8598 11.7397 6.8598C11.6403 6.8598 11.5582 6.8931 11.4936 6.95978C11.4291 7.02645 11.3906 7.1172 11.3783 7.23203H12.0904Z" fill="white"/><path d="M13.6175 6.52298C13.8616 6.52298 14.061 6.60398 14.2159 6.76598C14.3687 6.92595 14.4451 7.13926 14.4451 7.40581C14.4451 7.68166 14.3636 7.90155 14.2005 8.06565C14.0477 8.21843 13.8488 8.29485 13.6037 8.29485C13.3423 8.29485 13.1341 8.20973 12.9793 8.03955C12.8316 7.87755 12.7578 7.66733 12.7578 7.40896C12.7578 7.15463 12.8296 6.94801 12.9731 6.78908C13.132 6.61163 13.3469 6.52298 13.6175 6.52298ZM13.5944 6.87053C13.4765 6.87053 13.3827 6.91823 13.313 7.01355C13.2422 7.10993 13.2068 7.24171 13.2068 7.40888C13.2068 7.58221 13.2417 7.71495 13.3115 7.80728C13.3832 7.90058 13.4812 7.94723 13.6052 7.94723C13.7211 7.94723 13.8129 7.9047 13.8806 7.81958C13.9574 7.72523 13.9959 7.58836 13.9959 7.40888C13.9959 7.24073 13.9621 7.11 13.8944 7.0167C13.8236 6.91928 13.7237 6.87053 13.5944 6.87053Z" fill="white"/></svg>

<svg class="color-immutable" width="30" height="30" viewBox="0 0 30 30" fill="none" xmlns="http://www.w3.org/2000/svg"><g clip-path="url(#a)"><path d="M30 0H0v30h30V0Z" fill="#2D327D"/><path d="M25.5 3c.825 0 1.5.675 1.5 1.5v21c0 .825-.675 1.5-1.5 1.5h-21c-.825 0-1.5-.675-1.5-1.5v-21C3 3.675 3.675 3 4.5 3h21Zm0-.375h-21A1.877 1.877 0 0 0 2.625 4.5v21c0 1.034.841 1.875 1.875 1.875h21a1.877 1.877 0 0 0 1.875-1.875v-21A1.877 1.877 0 0 0 25.5 2.625Z" fill="#fff"/><path d="m23.561 13.09-13.157 4.789a.968.968 0 0 1-.746-.033L8.3 17.214l.64 1.756c.112.31.458.471.768.358l13.673-4.977a.601.601 0 0 0 .359-.769l-.18-.493Z" fill="#fff"/><path d="m5.949 15.112.174.478c.052.145.16.27.31.34l3.383 1.576c.14.065.304.077.46.02l13.298-4.84a.602.602 0 0 0 .36-.769l-1.078-2.959L5.95 15.112ZM17.928 19.125h.655l-.852-2.343-2.115.77.918 2.522c.22-.555.761-.949 1.394-.949Z" fill="#fff"/><path d="M17.928 19.5a1.125 1.125 0 1 0 0 2.25H24V19.5h-6.072Zm0 1.872a.75.75 0 1 1 0-1.5.75.75 0 0 1 0 1.5ZM8.088 6l-.747 2.249h-.559L6.046 6h.513l.506 1.684L7.58 6h.51ZM8.723 6v.401h-.446V6h.446Zm0 .572V8.25h-.446V6.572h.446ZM10.665 6v2.249h-.426v-.22c-.099.177-.262.266-.491.266a.66.66 0 0 1-.543-.25c-.131-.164-.197-.379-.197-.645 0-.252.058-.455.174-.611a.638.638 0 0 1 .541-.27c.223 0 .388.085.497.256V6h.445Zm-.826.884a.334.334 0 0 0-.276.13c-.07.09-.106.217-.106.381 0 .16.035.287.105.382.066.09.161.135.284.135a.338.338 0 0 0 .286-.134c.068-.09.102-.215.102-.377 0-.169-.036-.298-.108-.387a.352.352 0 0 0-.287-.13ZM12.52 7.726a.751.751 0 0 1-.128.266c-.148.202-.36.303-.637.303-.25 0-.45-.08-.601-.237a.773.773 0 0 1-.17-.278 1.055 1.055 0 0 1-.063-.363c0-.244.07-.45.211-.616a.76.76 0 0 1 .61-.278.753.753 0 0 1 .734.516c.047.13.07.295.07.493h-1.17a.65.65 0 0 0 .038.205c.06.146.175.22.344.22.083 0 .151-.019.203-.055a.391.391 0 0 0 .13-.176h.429Zm-.43-.494a.54.54 0 0 0-.055-.202.338.338 0 0 0-.295-.17c-.1 0-.182.033-.246.1a.447.447 0 0 0-.116.272h.712ZM13.617 6.523c.245 0 .444.081.599.243.153.16.23.373.23.64 0 .276-.082.496-.245.66a.807.807 0 0 1-.597.229c-.262 0-.47-.085-.625-.255-.147-.162-.221-.373-.221-.631 0-.254.072-.461.215-.62.159-.177.374-.266.644-.266Zm-.023.348a.331.331 0 0 0-.281.143.655.655 0 0 0-.106.395c0 .173.035.306.104.398a.35.35 0 0 0 .294.14.333.333 0 0 0 .276-.127c.076-.095.115-.232.115-.411 0-.168-.034-.299-.102-.392a.349.349 0 0 0-.3-.146Z" fill="#fff"/></g><defs><clipPath id="a"><path fill="#fff" d="M0 0h30v30H0z"/></clipPath></defs></svg>
